X:0854
T:Belisle March.
M:C
L:1/8
Q:1/2=66
I: :: ||
N:bar 8 printed |de dc/B/ {B}A>D| (i.e. one beat short)
Z:Jack Campin * www.campin.me.uk * 2009
K:G
D2|G2 G>B A2 A>c|B2 g>e {e}d3 c|B2 (3dBG A2 (3AFD|G2 G>G      G2:|
D2|d>edc  B2 B2 |c<dcB     A2A2|d>e``dc  B>c``B>c|de dc/B/ {B}A3D|
   G2 G>B A2 A>c|B2 g>e {e}d3 c|B2 (3dBG A2 (3AFD|G2 G>G      G2|]

